img/part6/7/2_仙品LOGO.svg

<svg width="278" height="57" viewBox="0 0 278 57" fill="none" xmlns="http://www.w3.org/2000/svg"><g clip-path="url(#clip0_30_189)"><path d="M139 56.9999C121.337 56.9999 104.721 54.1281 92.2123 48.918C79.5083 43.6244 72.5167 36.5168 72.5167 28.8942C72.5167 21.2716 79.5129 14.164 92.2123 8.87046C104.721 3.66038 121.337 0.788574 139 0.788574C156.663 0.788574 173.279 3.66038 185.788 8.87046C198.492 14.164 205.483 21.2716 205.483 28.8942C205.483 36.5168 198.487 43.6244 185.788 48.918C173.279 54.1281 156.663 56.9999 139 56.9999ZM139 2.1804C103.111 2.1804 73.9122 14.164 73.9122 28.8942C73.9122 43.6244 103.111 55.608 139 55.608C174.888 55.608 204.092 43.6244 204.092 28.8942C204.092 14.164 174.888 2.1804 139 2.1804Z" fill="white"></path><path d="M181.769 40.8965H96.2361V41.4579H181.769V40.8965Z" fill="white"></path><path d="M122.57 46.5012C122.212 46.4223 121.612 46.4177 120.877 46.4641C120.914 46.0558 120.914 45.6939 120.853 45.4341C120.621 44.4459 120.184 43.1098 118.086 44.214C118.086 44.214 119.193 45.462 119.104 46.3063C119.095 46.3991 119.086 46.5151 119.076 46.6357C118.248 46.7378 117.378 46.8631 116.569 46.993C116.588 46.7517 116.611 46.5383 116.634 46.3666C116.811 45.1465 117.113 43.6665 114.029 44.3067C114.029 44.3067 113.578 44.9702 114.541 45.5223C114.541 45.5223 114.634 46.4038 114.708 47.3038C113.792 47.4662 113.183 47.5822 113.183 47.5822C113.183 47.5822 112.02 46.8863 112.173 47.4291C112.327 47.9719 113.257 49.0529 113.727 48.8627C113.918 48.7838 114.304 48.5889 114.783 48.3802C114.792 48.524 114.797 48.6585 114.801 48.7745C114.829 49.7627 114.508 52.5788 116.983 52.9871C119.458 53.3954 121.086 53.0474 121.467 52.8108C121.844 52.5788 122.109 51.2705 120.681 51.2148C119.253 51.1545 116.983 51.8226 116.723 51.2427C116.537 50.8298 116.485 49.1503 116.532 47.777C116.75 47.726 116.969 47.6842 117.178 47.6611C117.676 47.6054 118.337 47.5729 119.007 47.559C118.928 48.408 118.797 49.2663 118.5 49.2106C118.034 49.1225 116.927 48.7745 116.988 49.0343C117.048 49.2941 117.774 50.0225 117.918 50.4261C118.062 50.8344 119.374 51.4143 119.928 50.1339C120.216 49.4704 120.518 48.4915 120.709 47.5683C121.216 47.5915 121.607 47.6332 121.76 47.6982C122.226 47.893 124.277 46.8816 122.575 46.4966L122.57 46.5012Z" fill="white"></path><path d="M128.51 43.5225C128.51 43.5225 129.441 44.5663 128.468 46.037C127.496 47.5077 125.091 51.2285 125.519 52.2724C125.947 53.3163 127.305 53.3952 127.422 52.4673C127.538 51.5394 128.003 49.2939 128.701 48.9042C129.399 48.5145 131.069 47.6655 130.99 49.4841C130.91 51.3028 131.259 53.6271 132.697 53.3163C134.134 53.0054 134.948 52.1564 135.106 51.6136C135.26 51.0708 135.534 49.8738 134.678 50.9177C133.823 51.9616 132.934 52.0405 132.739 50.9177C132.543 49.795 132.464 47.8232 130.99 47.8232C129.515 47.8232 128.426 47.7072 129.594 46.8165C130.757 45.9257 132.311 43.5642 128.51 43.5271V43.5225Z" fill="white"></path><path d="M145.075 44.8865C145.075 44.8865 144.35 45.6706 143.591 45.3505C142.838 45.0304 142.4 46.0186 143.242 46.2505C144.089 46.4825 145.34 45.9629 144.377 47.183C143.419 48.4032 142.4 52.4674 144.494 53.2514C146.592 54.0355 148.713 54.1793 149.587 52.8756C150.462 51.5673 150.518 49.4471 150.169 48.5795C149.82 47.7073 149.704 47.299 149.704 47.299C149.704 47.299 150.429 48.0553 150.695 48.4589C150.955 48.8672 151.76 49.3868 152.09 49.1873C152.29 49.062 152.732 48.663 151.741 47.5032C150.75 46.3433 150.053 44.4829 149.327 44.687C148.601 44.8912 148.601 45.2391 149.034 46.8629C149.471 48.4914 149.471 51.739 147.987 51.9431C146.503 52.1472 144.084 52.0591 144.782 49.7069C145.48 47.3547 147.489 46.0186 146.936 45.3551C146.382 44.687 145.764 44.4179 145.075 44.8912V44.8865Z" fill="white"></path><path d="M159.045 44.0745C159.045 44.0745 159.426 45.0905 158.956 45.8143C158.491 46.538 155.635 51.0986 155.667 51.7666C155.695 52.4347 156.891 54.6709 157.649 52.3744C158.407 50.0779 159.514 48.4541 160.296 48.6582C161.082 48.8624 161.022 50.5186 161.142 51.5903C161.259 52.6667 162.45 54.2627 163.645 53.3904C164.836 52.5182 165.859 50.1382 164.924 51.0383C163.994 51.9383 162.859 52.3744 162.826 51.2702C162.799 50.166 162.566 48.5515 162.003 48.2036C161.417 47.8417 160.063 47.9623 159.654 48.1108C159.245 48.2546 159.189 47.5587 159.914 46.8906C160.645 46.2225 161.487 45.0348 160.789 44.5384C160.091 44.0466 159.742 43.8147 159.04 44.0745H159.045Z" fill="white"></path><path d="M127.231 10.5964C123.854 8.38807 122.63 10.3645 121.76 12.1042C120.886 13.8487 121.528 20.9284 121.76 21.8007C121.993 22.6729 119.49 23.3688 119.197 23.1368C118.904 22.9048 119.021 17.7922 118.904 14.1966C118.788 10.5964 118.732 7.57617 115.704 7.40451C112.676 7.22821 111.22 10.1928 113.257 11.2367L113.955 11.7609C113.955 11.7609 114.597 25.4055 114.187 25.9901C113.778 26.57 111.624 28.2541 111.568 26.338C111.508 24.4219 112.382 17.2772 110.638 16.4096C108.894 15.5374 109.591 14.2616 109.298 12.2852C109.01 10.3088 106.093 6.24465 102.483 8.51333C102.483 8.51333 100.911 11.4176 101.902 12.2295C102.893 13.0414 103.242 14.6095 101.437 17.5138C99.632 20.4135 96.6036 24.4822 99.1668 26.3983C101.73 28.3144 102.074 27.1499 101.902 31.3903C101.73 35.6308 103.302 38.3031 104.87 37.5469C106.442 36.7906 106.614 36.7906 106.382 31.0424C106.149 25.2941 106.558 20.4135 107.079 20.0098C107.605 19.6016 108.708 19.4856 108.535 21.346C108.363 23.2064 108.01 30.1702 108.712 31.9146C109.41 33.659 111.392 35.6308 112.848 34.9349C114.304 34.239 117.388 32.0306 118.262 32.9585C119.137 33.8864 123.561 36.5587 125.194 36.5587C126.826 36.5587 129.85 36.1504 129.562 29.1866C129.273 22.2182 130.608 12.8094 127.231 10.6057V10.5964ZM122.477 31.4043C121.7 31.5203 119.681 30.7455 119.681 30.7455C120.342 29.7016 122.668 28.8108 123.793 28.9639C124.919 29.117 123.249 31.2883 122.472 31.4043H122.477ZM124.319 21.6893L122.63 21.7496C122.63 21.7496 122.281 14.2291 122.602 12.661C122.923 11.0929 123.942 12.1367 123.942 12.1367C125.514 14.4286 124.319 21.6893 124.319 21.6893Z" fill="white"></path><path d="M173.284 11.0788C172.274 9.9978 167.734 6.47184 162.882 8.36936C158.03 10.2669 154.923 11.8118 154.421 12.0484C153.918 12.2804 153.723 12.0855 152.83 11.4267C151.937 10.7679 149.801 9.37612 148.639 11.2736C148.639 11.2736 148.327 12.7443 149.336 13.3243C150.346 13.9042 150.113 14.9898 150.229 17.1564C150.346 19.323 152.132 23.3501 156.012 22.7701C159.891 22.1902 164.124 20.6035 168.199 21.2206C172.274 21.8376 173.67 21.7634 173.902 20.6406C174.135 19.5179 173.981 18.9751 173.474 18.5529C172.972 18.1261 174.214 17.1611 174.405 15.6486C174.6 14.1408 174.288 12.1644 173.279 11.0788H173.284ZM164.106 17.6389C163.292 17.741 158.575 18.4323 156.947 19.0911C155.318 19.7499 155.202 19.7081 154.309 18.9333C153.416 18.1586 154.039 15.9131 154.039 15.9131C154.467 15.6022 156.407 15.8342 158.31 15.5651C160.212 15.2914 161.766 14.3635 165.064 12.582C168.362 10.8004 168.362 11.8072 168.362 13.6676C168.362 15.528 164.734 17.5601 164.11 17.6343L164.106 17.6389Z" fill="white"></path><path d="M176.386 29.3906C176.075 26.9874 175.028 24.0877 170.874 23.2712C166.725 22.4593 159.891 23.4243 157.486 24.4728C155.077 25.5213 152.146 26.6487 151.769 25.7208C151.392 24.7929 148.471 20.8216 146.424 23.6192C146.424 23.6192 146.499 25.2476 146.927 25.4007C147.355 25.5538 147.238 26.6394 147.08 27.6462C146.927 28.6529 146.578 34.0718 147.894 35.2734C149.215 36.475 152.355 38.2519 156.393 37.788C160.431 37.324 165.166 36.3961 166.948 36.7812C168.734 37.1663 172.111 38.2148 173.47 37.904C174.828 37.5931 177.196 35.5054 175.875 33.8027C174.554 32.1 176.689 31.7892 176.377 29.3906H176.386ZM155.346 33.3016C154.56 34.1414 152.932 33.8816 151.853 32.9259C150.774 31.9655 151.969 29.4695 151.969 29.4695C155.667 29.1494 156.774 30.2814 157.035 30.7732C157.295 31.2696 156.133 32.4573 155.346 33.3016ZM167.776 30.5134C166.353 31.5897 164.11 31.5016 163.873 31.3253C163.641 31.149 162.505 27.8132 162.505 27.8132C166.408 25.229 170.046 26.2729 170.483 26.8807C170.921 27.4931 169.204 29.437 167.776 30.5087V30.5134Z" fill="white"></path><path d="M61.7246 10.4342C60.9524 7.31188 54.277 6.17986 53.3234 6.04068C52.3698 5.90614 52.8396 4.26842 52.4163 2.82556C51.9837 1.35486 50.6766 1.96262 50.6766 1.96262C50.5277 3.83695 49.4066 3.56787 49.1322 3.44724C48.8577 3.32661 48.7089 1.93943 48.1041 1.78169C47.4994 1.62395 47.104 3.11784 46.6202 7.40003C46.1364 11.6869 42.6569 13.7375 38.9773 14.735C35.2978 15.7324 31.3344 19.7455 28.4271 25.4196C25.5197 31.0936 28.641 39.3935 29.4551 42.0844C30.2738 44.7706 28.0317 41.9916 25.9756 36.0763C23.9195 30.1611 29.897 16.9526 21.361 10.7497C12.825 4.54678 5.63797 7.98924 1.87002 13.8303C-2.12586 20.0239 1.20482 27.2336 3.33999 30.7642C5.47516 34.2948 10.4247 34.434 10.4247 34.434C10.4247 34.434 10.6526 34.2066 9.56408 30.7642C8.47556 27.3217 9.83853 25.6469 11.4248 25.3314C13.011 25.0159 12.9227 26.1897 13.7879 35.5196C14.6485 44.8495 22.7751 49.1502 28.5899 50.2359C34.4 51.3215 50.3835 49.1781 53.1048 48.1249C55.8307 47.0671 51.6069 46.297 50.1556 46.5243C48.7042 46.7517 48.6577 45.3459 50.5649 42.5854C52.4721 39.825 51.1092 36.1088 49.1415 34.6335C47.1738 33.1581 48.4763 31.3719 49.1415 30.8291C49.8067 30.2863 52.5001 30.4951 52.5001 30.7363C52.5001 30.9776 52.4675 32.3973 53.6816 33.0932C54.8911 33.7891 55.3283 29.4327 55.1051 28.2635C54.8957 27.1593 52.5001 25.7258 51.593 24.9139C50.6859 24.0973 54.5282 18.8455 54.9236 18.0614C55.319 17.2774 57.1937 16.433 59.6452 15.7371C62.0967 15.0412 62.5061 13.5658 61.7339 10.4389L61.7246 10.4342ZM55.7982 10.8889C55.3097 10.8889 54.9143 10.4945 54.9143 10.0074C54.9143 9.52025 55.3097 9.1259 55.7982 9.1259C56.2866 9.1259 56.682 9.52025 56.682 10.0074C56.682 10.4945 56.2866 10.8889 55.7982 10.8889Z" fill="white"></path><path d="M218.364 15.7322C220.816 16.4281 222.69 17.2725 223.086 18.0566C223.481 18.8406 227.323 24.0925 226.416 24.909C225.509 25.7256 223.118 27.1545 222.904 28.2587C222.681 29.4278 223.118 33.7842 224.328 33.0883C225.537 32.3924 225.509 30.9774 225.509 30.7315C225.509 30.4902 228.203 30.2768 228.868 30.8243C229.533 31.3717 230.836 33.1486 228.868 34.6286C226.9 36.1086 225.537 39.8201 227.444 42.5806C229.352 45.3411 229.305 46.7468 227.854 46.5195C226.402 46.2921 222.179 47.0623 224.905 48.1201C227.63 49.1779 243.609 51.3213 249.419 50.231C255.23 49.1454 263.356 44.8446 264.221 35.5147C265.082 26.1895 264.994 25.0111 266.585 25.3266C268.175 25.642 269.534 27.3169 268.445 30.7593C267.357 34.2018 267.585 34.4291 267.585 34.4291C267.585 34.4291 272.534 34.2946 274.669 30.7593C276.805 27.2241 280.135 20.0191 276.139 13.8254C272.371 7.98439 265.184 4.54193 256.648 10.7448C248.112 16.9478 254.09 30.1562 252.034 36.0715C249.978 41.9867 247.735 44.7658 248.554 42.0795C249.373 39.3933 252.49 31.0934 249.582 25.4147C246.675 19.7407 242.712 15.7229 239.032 14.7301C235.352 13.7326 231.873 11.682 231.389 7.39518C230.905 3.10835 230.51 1.61909 229.905 1.77683C229.3 1.93457 229.147 3.32176 228.877 3.44239C228.603 3.56301 227.486 3.83674 227.333 1.95777C227.333 1.95777 226.021 1.35001 225.593 2.8207C225.17 4.26357 225.64 5.90128 224.686 6.03583C223.732 6.17037 217.057 7.30239 216.285 10.4294C215.513 13.5563 215.922 15.0317 218.373 15.7276L218.364 15.7322ZM221.313 10.0025C221.313 9.5154 221.709 9.12105 222.197 9.12105C222.686 9.12105 223.081 9.5154 223.081 10.0025C223.081 10.4897 222.686 10.884 222.197 10.884C221.709 10.884 221.313 10.4897 221.313 10.0025Z" fill="white"></path></g><defs><clipPath id="clip0_30_189"><rect width="278" height="57" fill="white"></rect></clipPath></defs></svg>

<svg width="278" height="57" fill="none" xmlns="http://www.w3.org/2000/svg"><g clip-path="url(#a)" fill="#fff"><path d="M139 57c-17.663 0-34.279-2.872-46.788-8.082-12.704-5.294-19.695-12.401-19.695-20.024 0-7.622 6.996-14.73 19.695-20.024C104.721 3.66 121.337.79 139 .79c17.663 0 34.279 2.871 46.788 8.081 12.704 5.294 19.695 12.402 19.695 20.024 0 7.623-6.996 14.73-19.695 20.024C173.279 54.128 156.663 57 139 57Zm0-54.82c-35.889 0-65.088 11.984-65.088 26.714 0 14.73 29.199 26.714 65.088 26.714 35.888 0 65.092-11.984 65.092-26.714 0-14.73-29.204-26.714-65.092-26.714Z"/><path d="M181.769 40.897H96.236v.56h85.533v-.56ZM122.57 46.501c-.358-.079-.958-.083-1.693-.037.037-.408.037-.77-.024-1.03-.232-.988-.669-2.324-2.767-1.22 0 0 1.107 1.248 1.018 2.092-.009.093-.018.21-.028.33-.828.102-1.698.227-2.507.357.019-.241.042-.455.065-.626.177-1.22.479-2.7-2.605-2.06 0 0-.451.663.512 1.215 0 0 .093.882.167 1.782-.916.162-1.525.278-1.525.278s-1.163-.696-1.01-.153c.154.543 1.084 1.624 1.554 1.434.191-.08.577-.274 1.056-.483.009.144.014.278.018.395.028.988-.293 3.804 2.182 4.212 2.475.408 4.103.06 4.484-.176.377-.232.642-1.54-.786-1.596-1.428-.06-3.698.608-3.958.028-.186-.413-.238-2.093-.191-3.466.218-.051.437-.093.646-.116a21.7 21.7 0 0 1 1.829-.102c-.079.849-.21 1.707-.507 1.652-.466-.088-1.573-.436-1.512-.177.06.26.786.989.93 1.392.144.408 1.456.988 2.01-.292.288-.664.59-1.642.781-2.566.507.024.898.065 1.051.13.466.195 2.517-.816.815-1.201l-.005.004ZM128.51 43.523s.931 1.043-.042 2.514c-.972 1.47-3.377 5.191-2.949 6.235.428 1.044 1.786 1.123 1.903.195.116-.928.581-3.173 1.279-3.563.698-.39 2.368-1.239 2.289.58-.08 1.819.269 4.143 1.707 3.832 1.437-.31 2.251-1.16 2.409-1.702.154-.543.428-1.74-.428-.696-.855 1.044-1.744 1.123-1.939 0-.196-1.123-.275-3.095-1.749-3.095-1.475 0-2.564-.116-1.396-1.007 1.163-.89 2.717-3.252-1.084-3.289v-.005ZM145.075 44.886s-.725.785-1.484.464c-.753-.32-1.191.669-.349.9.847.233 2.098-.287 1.135.933-.958 1.22-1.977 5.284.117 6.068 2.098.785 4.219.928 5.093-.375.875-1.309.931-3.429.582-4.296-.349-.873-.465-1.281-.465-1.281s.725.756.991 1.16c.26.408 1.065.928 1.395.728.2-.125.642-.524-.349-1.684s-1.688-3.02-2.414-2.816c-.726.204-.726.552-.293 2.176.437 1.628.437 4.876-1.047 5.08-1.484.204-3.903.116-3.205-2.236.698-2.352 2.707-3.688 2.154-4.352-.554-.668-1.172-.937-1.861-.464v-.005ZM159.045 44.075s.381 1.015-.089 1.74c-.465.723-3.321 5.284-3.289 5.952.028.668 1.224 2.904 1.982.607.758-2.296 1.865-3.92 2.647-3.716.786.204.726 1.86.846 2.932.117 1.077 1.308 2.673 2.503 1.8 1.191-.872 2.214-3.252 1.279-2.352-.93.9-2.065 1.336-2.098.232-.027-1.104-.26-2.719-.823-3.066-.586-.362-1.94-.242-2.349-.093-.409.144-.465-.552.26-1.22.731-.669 1.573-1.856.875-2.353-.698-.491-1.047-.723-1.749-.463h.005ZM127.231 10.596c-3.377-2.208-4.601-.232-5.471 1.508-.874 1.745-.232 8.824 0 9.697.233.872-2.27 1.568-2.563 1.336-.293-.232-.176-5.345-.293-8.94-.116-3.6-.172-6.62-3.2-6.792-3.028-.177-4.484 2.788-2.447 3.832l.698.524s.642 13.645.232 14.23c-.409.579-2.563 2.263-2.619.347-.06-1.916.814-9.06-.93-9.928-1.744-.873-1.047-2.148-1.34-4.125-.288-1.976-3.205-6.04-6.815-3.772 0 0-1.572 2.905-.581 3.716.991.812 1.34 2.38-.465 5.285-1.805 2.9-4.833 6.968-2.27 8.884 2.563 1.916 2.907.752 2.735 4.992-.172 4.24 1.4 6.913 2.968 6.157 1.572-.756 1.744-.756 1.512-6.505-.233-5.748.176-10.629.697-11.032.526-.408 1.629-.524 1.456 1.336-.172 1.86-.525 8.824.177 10.569.698 1.744 2.68 3.716 4.136 3.02 1.456-.696 4.54-2.904 5.414-1.977.875.928 5.299 3.6 6.932 3.6 1.632 0 4.656-.408 4.368-7.371-.289-6.969 1.046-16.378-2.331-18.581v-.01Zm-4.754 20.808c-.777.116-2.796-.659-2.796-.659.661-1.043 2.987-1.934 4.112-1.781 1.126.153-.544 2.324-1.321 2.44h.005Zm1.842-9.715-1.689.06s-.349-7.52-.028-9.088c.321-1.568 1.34-.524 1.34-.524 1.572 2.292.377 9.552.377 9.552ZM173.284 11.079c-1.01-1.081-5.55-4.607-10.402-2.71-4.852 1.898-7.959 3.443-8.461 3.68-.503.231-.698.037-1.591-.622-.893-.66-3.029-2.05-4.191-.153 0 0-.312 1.47.697 2.05 1.01.58.777 1.666.893 3.832.117 2.167 1.903 6.194 5.783 5.614 3.879-.58 8.112-2.166 12.187-1.55 4.075.618 5.471.543 5.703-.58.233-1.122.079-1.665-.428-2.087-.502-.427.74-1.392.931-2.904.195-1.508-.117-3.485-1.126-4.57h.005Zm-9.178 6.56c-.814.102-5.531.793-7.159 1.452-1.629.659-1.745.617-2.638-.158-.893-.774-.27-3.02-.27-3.02.428-.31 2.368-.079 4.271-.348 1.902-.274 3.456-1.201 6.754-2.983 3.298-1.782 3.298-.775 3.298 1.086 0 1.86-3.628 3.892-4.252 3.966l-.004.005Z"/><path d="M176.386 29.39c-.311-2.403-1.358-5.302-5.512-6.119-4.149-.812-10.983.153-13.388 1.202-2.409 1.048-5.34 2.176-5.717 1.248-.377-.928-3.298-4.9-5.345-2.102 0 0 .075 1.629.503 1.782.428.153.311 1.238.153 2.245-.153 1.007-.502 6.426.814 7.627 1.321 1.202 4.461 2.979 8.499 2.515 4.038-.464 8.773-1.392 10.555-1.007 1.786.385 5.163 1.434 6.522 1.123 1.358-.31 3.726-2.399 2.405-4.101-1.321-1.703.814-2.014.502-4.412h.009Zm-21.04 3.912c-.786.84-2.414.58-3.493-.376-1.079-.96.116-3.457.116-3.457 3.698-.32 4.805.812 5.066 1.304.26.497-.902 1.684-1.689 2.529Zm12.43-2.789c-1.423 1.077-3.666.989-3.903.812-.232-.176-1.368-3.512-1.368-3.512 3.903-2.584 7.541-1.54 7.978-.932.438.612-1.279 2.556-2.707 3.628v.004ZM61.725 10.434c-.773-3.122-7.448-4.254-8.402-4.393-.953-.135-.483-1.773-.907-3.215-.432-1.471-1.74-.863-1.74-.863-.148 1.874-1.27 1.605-1.544 1.484-.274-.12-.423-1.508-1.028-1.665-.605-.158-1 1.336-1.484 5.618-.484 4.287-3.963 6.338-7.643 7.335-3.68.997-7.643 5.01-10.55 10.685-2.907 5.674.214 13.974 1.028 16.664.819 2.687-1.423-.092-3.48-6.008-2.056-5.915 3.922-19.123-4.614-25.326C12.825 4.547 5.638 7.99 1.87 13.83c-3.996 6.194-.665 13.404 1.47 16.934 2.135 3.53 7.085 3.67 7.085 3.67s.228-.227-.86-3.67c-1.09-3.442.274-5.117 1.86-5.433 1.586-.315 1.498.859 2.363 10.189.86 9.33 8.987 13.63 14.802 14.716 5.81 1.086 21.793-1.058 24.515-2.111 2.726-1.058-1.498-1.828-2.95-1.6-1.45.227-1.497-1.18.41-3.94s.544-6.476-1.423-7.952c-1.968-1.475-.666-3.261 0-3.804.665-.543 3.358-.334 3.358-.093 0 .242-.032 1.661 1.182 2.357 1.21.696 1.646-3.66 1.423-4.83-.21-1.104-2.605-2.537-3.512-3.35-.907-.816 2.935-6.067 3.33-6.852.396-.784 2.27-1.628 4.722-2.324 2.452-.696 2.861-2.171 2.089-5.298l-.01-.005Zm-5.927.455a.882.882 0 1 1 0-1.763.882.882 0 1 1 0 1.763ZM218.364 15.732c2.452.696 4.326 1.54 4.722 2.325.395.784 4.237 6.036 3.33 6.852-.907.817-3.298 2.245-3.512 3.35-.223 1.169.214 5.525 1.424 4.83 1.209-.697 1.181-2.112 1.181-2.357 0-.242 2.694-.455 3.359.092.665.548 1.968 2.325 0 3.805s-3.331 5.191-1.424 7.952c1.908 2.76 1.861 4.166.41 3.938-1.452-.227-5.675.543-2.949 1.601 2.725 1.058 18.704 3.201 24.514 2.111 5.811-1.086 13.937-5.386 14.802-14.716.861-9.326.773-10.504 2.364-10.188 1.59.315 2.949 1.99 1.86 5.432-1.088 3.443-.86 3.67-.86 3.67s4.949-.134 7.084-3.67c2.136-3.535 5.466-10.74 1.47-16.934-3.768-5.84-10.955-9.283-19.491-3.08-8.536 6.203-2.558 19.411-4.614 25.327-2.056 5.915-4.299 8.694-3.48 6.008.819-2.687 3.936-10.987 1.028-16.665-2.907-5.674-6.87-9.692-10.55-10.685-3.68-.997-7.159-3.048-7.643-7.335s-.879-5.776-1.484-5.618c-.605.158-.758 1.545-1.028 1.665-.274.121-1.391.395-1.544-1.484 0 0-1.312-.608-1.74.863-.423 1.443.047 3.08-.907 3.215-.954.134-7.629 1.266-8.401 4.393-.772 3.127-.363 4.603 2.088 5.299l-.009.004Zm2.949-5.73c0-.487.396-.881.884-.881a.882.882 0 1 1 0 1.763.883.883 0 0 1-.884-.882Z"/></g><defs><clipPath id="a"><path fill="#fff" d="M0 0h278v57H0z"/></clipPath></defs></svg>
